packages/ffe-icons/icons/filled/md/add_box.svg

<svg xmlns="http://www.w3.org/2000/svg" height="24" viewBox="0 -960 960 960" width="24"><path d="M450.001-450.001V-320q0 12.75 8.628 21.374 8.629 8.625 21.384 8.625 12.756 0 21.371-8.625 8.615-8.624 8.615-21.374v-130.001H640q12.75 0 21.375-8.628 8.624-8.629 8.624-21.384 0-12.756-8.624-21.371-8.625-8.615-21.375-8.615H509.999V-640q0-12.75-8.628-21.375-8.629-8.624-21.384-8.624-12.756 0-21.371 8.624-8.615 8.625-8.615 21.375v130.001H320q-12.75 0-21.374 8.628-8.625 8.629-8.625 21.384 0 12.756 8.625 21.371 8.624 8.615 21.374 8.615h130.001Zm-237.692 310q-30.308 0-51.308-21t-21-51.308v-535.382q0-30.308 21-51.308t51.308-21h535.382q30.308 0 51.308 21t21 51.308v535.382q0 30.308-21 51.308t-51.308 21H212.309Z"/></svg>

<svg xmlns="http://www.w3.org/2000/svg" height="24" viewBox="0 -960 960 960" width="24"><path d="M450-450v130q0 12.75 8.63 21.37 8.63 8.63 21.38 8.63 12.76 0 21.37-8.63Q510-307.25 510-320v-130h130q12.75 0 21.37-8.63 8.63-8.63 8.63-21.38 0-12.76-8.63-21.37Q652.75-510 640-510H510v-130q0-12.75-8.63-21.37-8.63-8.63-21.38-8.63-12.76 0-21.37 8.63Q450-652.75 450-640v130H320q-12.75 0-21.37 8.63-8.63 8.63-8.63 21.38 0 12.76 8.63 21.37Q307.25-450 320-450h130ZM212.31-140Q182-140 161-161q-21-21-21-51.31v-535.38Q140-778 161-799q21-21 51.31-21h535.38Q778-820 799-799q21 21 21 51.31v535.38Q820-182 799-161q-21 21-51.31 21H212.31Z"/></svg>
